svg/motor_controller.svg

<svg xmlns="http://www.w3.org/2000/svg" width="24" height="24" viewBox="0 0 24 24"><path d="M17 5.06A7 7 0 0 0 9.07 11H7v-1a2 2 0 0 0-2-2H3a2 2 0 0 0-2 2v4a2 2 0 0 0 2 2h2a2 2 0 0 0 2-2v-1h2.07A7 7 0 1 0 17 5.06zM19.25 15h-1.41v-2.94c0-.16 0-.55.05-1.17L16.71 15h-1.47l-1.17-4.11c0 .7.08 1.24.08 1.63V15h-1.4V9.29h2.05l1.2 4.05 1.2-4.05h2.05z" fill-rule="evenodd"/><path fill="none" d="M0 0h24v24H0z"/></svg>

<svg xmlns="http://www.w3.org/2000/svg" width="24" height="24" viewBox="0 0 24 24"><path d="M17,5.06A7,7,0,0,0,9.07,11H7V10A2,2,0,0,0,5,8H3a2,2,0,0,0-2,2v4a2,2,0,0,0,2,2H5a2,2,0,0,0,2-2V13H9.07A7,7,0,1,0,17,5.06ZM19.25,15H17.84V12.06c0-.16,0-.55.05-1.17L16.71,15H15.24l-1.17-4.11c0,.7.08,1.24.08,1.63V15h-1.4V9.29H14.8L16,13.34l1.2-4.05h2.05Z" fill-rule="evenodd"/><rect width="24" height="24" fill="none"/></svg>
